src/components/Icon/svg-icon/main/formatting-underline.svg

<svg xmlns="http://www.w3.org/2000/svg" width="24" height="24"><path fill="#677078" d="M12 17c3.31 0 6-2.69 6-6V3h-2.5v8c0 1.93-1.57 3.5-3.5 3.5S8.5 12.93 8.5 11V3H6v8c0 3.31 2.69 6 6 6zm-7 2v2h14v-2H5z"/></svg>

<svg xmlns="http://www.w3.org/2000/svg" width="24" height="24" viewBox="0 0 24 24">
  <path fill="#677078" d="M12,17 C15.31,17 18,14.31 18,11 L18,3 L15.5,3 L15.5,11 C15.5,12.93 13.93,14.5 12,14.5 C10.07,14.5 8.5,12.93 8.5,11 L8.5,3 L6,3 L6,11 C6,14.31 8.69,17 12,17 Z M5,19 L5,21 L19,21 L19,19 L5,19 Z"/>
</svg>
